app/assets/images/sharing_tags/icons/vkontakte.svg

<svg xmlns="http://www.w3.org/2000/svg" viewBox="0 0 76 77"><g class="vk-sharing-tags-icon-fill sharing-tags-icon-fill"><path d="M38.24 1.16C17.78 1.16 1.2 17.78 1.2 38.29s16.58 37.13 37.04 37.13c20.45 0 37.03-16.62 37.03-37.13S58.69 1.16 38.24 1.16z"/></g><g class="vk-sharing-tags-icon-in sharing-tags-icon-in"><path d="M56.38 41.34c3.12 2.74 5.29 4.97 6.52 6.69.57.86.76 1.62.55 2.28-.2.67-.68 1-1.41 1l-8.12.35c-1.14.08-2.54-.58-4.18-1.99-1.64-1.41-2.74-2.58-3.32-3.52-.32-.55-.92-.86-1.78-.94-.86-.08-1.41.31-1.66 1.17l-.24 3.05c-.09.63-.33 1.1-.74 1.41-.41.32-.76.49-1.05.53-.28.04-.76.1-1.41.18-2.13.08-4-.02-5.6-.3-1.59-.27-3.05-.84-4.36-1.7-1.31-.86-2.36-1.64-3.13-2.34-.78-.71-1.91-1.84-3.39-3.41-4.01-5.47-7-10.21-8.97-14.2-.74-1.56-1.15-2.89-1.23-3.99.33-.31.94-.51 1.84-.59.91-.07 2.22-.09 3.94-.05 1.72.04 2.74.05 3.07.05.82-.07 1.48.36 1.97 1.3 2.05 4.38 4.06 7.78 6.02 10.21 1.31 1.17 2.17.97 2.59-.59.16 0 .24-1.92.24-5.75.08-2.43-.94-3.95-3.07-4.58.49-1.25 2.21-1.88 5.16-1.88.74 0 1.64.04 2.71.12 1.06.08 1.63.12 1.72.12 2.46 0 3.69.94 3.69 2.82 0 .23-.05.8-.13 1.7-.08.9-.14 1.76-.18 2.58-.04.82-.06 1.68-.06 2.58 0 .9.12 1.66.37 2.29.24.63.57 1.02.98 1.17.45-.31.88-.6 1.29-.88.41-.27.84-.72 1.29-1.35.45-.62.8-1.09 1.04-1.4.25-.32.62-.91 1.11-1.77.49-.86.78-1.4.86-1.64.08-.23.37-.84.86-1.82.49-.98.74-1.46.74-1.46l.18-.36c.33-.7.6-1.11.8-1.23.21-.12.72-.18 1.54-.18h7.62c.91 0 1.44.03 1.6.06.17.04.41.22.74.53.57.71.06 2.23-1.54 4.58-1.59 2.35-3.13 4.3-4.61 5.87-2.05 2.19-2.33 3.95-.86 5.28z"/></g></svg>

<svg xmlns="http://www.w3.org/2000/svg" version="1.1" viewBox="0 0 76 77" width="100%" height="100%">
    <g id="Layer1" name="Layer 1" opacity="1">
        <g class="vk-sharing-tags-icon-fill sharing-tags-icon-fill">
            <desc shapeID="1" type="0" basicInfo-basicType="0" basicInfo-roundedRectRadius="12" basicInfo-polygonSides="6" basicInfo-starPoints="5" bounding="rect(-37.0349,-37.1342,74.0697,74.2683)" text="" font-familyName="" font-pixelSize="20" font-bold="0" font-underline="0" font-alignment="1" strokeStyle="0" markerStart="0" markerEnd="0" shadowEnabled="0" shadowOffsetX="0" shadowOffsetY="2" shadowBlur="4" shadowOpacity="160" blurEnabled="0" blurRadius="4" transform="matrix(1,0,0,1,38.2381,38.2899)" pers-center="0" pers-size="0" pers-start="0" pers-end="0" locked="0" mesh="" flag=""/>
            <path d="M38.24 1.16C17.78 1.16 1.2 17.78 1.2 38.29 1.2 58.8 17.78 75.42 38.24 75.42 58.69 75.42 75.27 58.8 75.27 38.29 75.27 17.78 58.69 1.16 38.24 1.16Z" style=""/>
        </g>
        <g class="vk-sharing-tags-icon-in sharing-tags-icon-in">
            <desc shapeID="2" type="0" basicInfo-basicType="0" basicInfo-roundedRectRadius="12" basicInfo-polygonSides="6" basicInfo-starPoints="5" bounding="rect(-25.3788,-13.9679,50.7576,27.9358)" text="" font-familyName="" font-pixelSize="20" font-bold="0" font-underline="0" font-alignment="1" strokeStyle="0" markerStart="0" markerEnd="0" shadowEnabled="0" shadowOffsetX="0" shadowOffsetY="2" shadowBlur="4" shadowOpacity="160" blurEnabled="0" blurRadius="4" transform="matrix(1,0,0,1,38.238,37.7028)" pers-center="0" pers-size="0" pers-start="0" pers-end="0" locked="0" mesh="" flag=""/>
            <path d="M56.38 41.34C59.5 44.08 61.67 46.31 62.9 48.03 63.47 48.89 63.66 49.65 63.45 50.31 63.25 50.98 62.77 51.31 62.04 51.31L53.92 51.66C52.78 51.74 51.38 51.08 49.74 49.67 48.1 48.26 47 47.09 46.42 46.15 46.1 45.6 45.5 45.29 44.64 45.21 43.78 45.13 43.23 45.52 42.98 46.38L42.74 49.43C42.65 50.06 42.41 50.53 42 50.84 41.59 51.16 41.24 51.33 40.95 51.37 40.67 51.41 40.19 51.47 39.54 51.55 37.41 51.63 35.54 51.53 33.94 51.25 32.35 50.98 30.89 50.41 29.58 49.55 28.27 48.69 27.22 47.91 26.45 47.21 25.67 46.5 24.54 45.37 23.06 43.8 19.05 38.33 16.06 33.59 14.09 29.6 13.35 28.04 12.94 26.71 12.86 25.61 13.19 25.3 13.8 25.1 14.7 25.02 15.61 24.95 16.92 24.93 18.64 24.97 20.36 25.01 21.38 25.02 21.71 25.02 22.53 24.95 23.19 25.38 23.68 26.32 25.73 30.7 27.74 34.1 29.7 36.53 31.01 37.7 31.87 37.5 32.29 35.94 32.45 35.94 32.53 34.02 32.53 30.19 32.61 27.76 31.59 26.24 29.46 25.61 29.95 24.36 31.67 23.73 34.62 23.73 35.36 23.73 36.26 23.77 37.33 23.85 38.39 23.93 38.96 23.97 39.05 23.97 41.51 23.97 42.74 24.91 42.74 26.79 42.74 27.02 42.69 27.59 42.61 28.49 42.53 29.39 42.47 30.25 42.43 31.07 42.39 31.89 42.37 32.75 42.37 33.65 42.37 34.55 42.49 35.31 42.74 35.94 42.98 36.57 43.31 36.96 43.72 37.11 44.17 36.8 44.6 36.51 45.01 36.23 45.42 35.96 45.85 35.51 46.3 34.88 46.75 34.26 47.1 33.79 47.34 33.48 47.59 33.16 47.96 32.57 48.45 31.71 48.94 30.85 49.23 30.31 49.31 30.07 49.39 29.84 49.68 29.23 50.17 28.25 50.66 27.27 50.91 26.79 50.91 26.79L51.09 26.43C51.42 25.73 51.69 25.32 51.89 25.2 52.1 25.08 52.61 25.02 53.43 25.02L61.05 25.02C61.96 25.02 62.49 25.05 62.65 25.08 62.82 25.12 63.06 25.3 63.39 25.61 63.96 26.32 63.45 27.84 61.85 30.19 60.26 32.54 58.72 34.49 57.24 36.06 55.19 38.25 54.91 40.01 56.38 41.34Z" />
        </g>
    </g>
</svg>
